Plastika/img/facebook.svg

<svg width="17" height="28" viewBox="0 0 17 28" fill="none" xmlns="http://www.w3.org/2000/svg">
<path d="M15.7404 0.850782H11.9872C7.77053 0.850782 5.04492 3.42044 5.04492 7.39808V10.4167H1.26405C1.11522 10.4127 0.970779 10.4673 0.86176 10.5686C0.752741 10.67 0.687849 10.8101 0.68103 10.9589V15.3315C0.687849 15.4802 0.752741 15.6203 0.86176 15.7217C0.970779 15.8231 1.11522 15.8777 1.26405 15.8737H5.04492V26.9117C5.05137 27.0606 5.11615 27.2009 5.22525 27.3024C5.33435 27.4038 5.47901 27.4583 5.62794 27.4539H10.5588C10.7076 27.4579 10.8521 27.4033 10.9611 27.3019C11.0701 27.2005 11.135 27.0604 11.1418 26.9117V15.8752H15.5626C15.7115 15.8795 15.8562 15.8251 15.9653 15.7236C16.0744 15.6221 16.1391 15.4818 16.1456 15.333V10.9603C16.1449 10.8879 16.1291 10.8164 16.0992 10.7504C16.0694 10.6844 16.0261 10.6253 15.9721 10.577C15.8574 10.4736 15.7082 10.417 15.5538 10.4181H11.1491V7.85721C11.1491 6.62704 11.4683 6.00321 13.2116 6.00321H15.7404C15.8892 6.00718 16.0337 5.95261 16.1427 5.85122C16.2517 5.74983 16.3166 5.60972 16.3234 5.461V1.39882C16.3181 1.24907 16.2538 1.10748 16.1447 1.00485C16.0355 0.902215 15.8902 0.846845 15.7404 0.850782Z" fill="#0C647B"/>
</svg>

<svg width="17" height="28" fill="none" xmlns="http://www.w3.org/2000/svg"><path d="M15.74.85h-3.753c-4.216 0-6.942 2.57-6.942 6.548v3.019H1.264a.569.569 0 00-.583.542v4.373a.568.568 0 00.583.542h3.78v11.038a.567.567 0 00.584.542h4.93a.568.568 0 00.584-.542V15.875h4.42a.567.567 0 00.584-.542V10.96a.52.52 0 00-.174-.383.618.618 0 00-.418-.159h-4.405v-2.56c0-1.231.32-1.855 2.063-1.855h2.528a.568.568 0 00.583-.542V1.399A.569.569 0 0015.74.85z" fill="#0C647B"/></svg>
